resources/svg/battery-2-o.svg

<svg xmlns="http://www.w3.org/2000/svg" viewBox="0 0 15 15" fill="none"><path d="M14.5 10L14.5 5M2.5 11L2.5 4M4.5 11V4M12.5 11.5V3.5C12.5 2.94772 12.0523 2.5 11.5 2.5L1.5 2.5C0.947715 2.5 0.5 2.94772 0.5 3.5L0.5 11.5C0.5 12.0523 0.947715 12.5 1.5 12.5H11.5C12.0523 12.5 12.5 12.0523 12.5 11.5Z" stroke="black"/></svg>

<svg xmlns="http://www.w3.org/2000/svg" viewBox="0 0 15 15" fill="none"><path d="M14.5 10V5m-12 6V4m2 7V4m8 7.5v-8a1 1 0 00-1-1h-10a1 1 0 00-1 1v8a1 1 0 001 1h10a1 1 0 001-1z" stroke="currentColor"/></svg>
